polaris-icons/icons/newicons/ThumbsDownMajor.svg

<svg width="20" height="20" viewBox="0 0 20 20" fill="none" xmlns="http://www.w3.org/2000/svg">
<path fill-rule="evenodd" clip-rule="evenodd" d="M7.30482 3C5.60588 3 4.1192 4.14219 3.68144 5.78377L3.12727 7.86192C2.57025 9.95075 4.14464 12 6.30646 12C6.82756 12 7.24999 12.4224 7.24999 12.9435V14.4277C7.24999 16.1245 8.62549 17.5 10.3223 17.5H10.7464C11.2675 17.5 11.7081 17.1143 11.7769 16.5978L11.9641 15.1939C12.1036 14.1477 12.7439 13.2364 13.678 12.75H15.25C16.2165 12.75 17 11.9665 17 11V7C17 6.0335 16.2165 5.25 15.25 5.25H14.8981C14.5411 5.25 14.2011 5.09732 13.9639 4.83045L13.4556 4.25864C12.7439 3.45805 11.7239 3 10.6528 3H7.30482ZM8.74999 12.9435C8.74999 11.594 7.65598 10.5 6.30646 10.5C5.13018 10.5 4.27354 9.38498 4.57662 8.24842L5.1308 6.17026C5.39345 5.18531 6.28546 4.5 7.30482 4.5H10.6528C11.2955 4.5 11.9075 4.77483 12.3345 5.25518L12.8427 5.827C12.8931 5.88369 12.9456 5.93803 13.0001 5.98996C13 5.9933 13 5.99665 13 6V11.4119C11.6251 12.1217 10.6821 13.4593 10.4773 14.9956L10.3434 16H10.3223C9.45392 16 8.74999 15.2961 8.74999 14.4277V12.9435ZM14.5 11.25H15.25C15.3881 11.25 15.5 11.1381 15.5 11V7C15.5 6.86193 15.3881 6.75 15.25 6.75H14.8981C14.764 6.75 14.631 6.74021 14.5 6.72105V11.25Z" fill="black"/>
</svg>

<svg viewBox="0 0 20 20" fill="none" xmlns="http://www.w3.org/2000/svg"><path fill-rule="evenodd" clip-rule="evenodd" d="M7.305 3a3.75 3.75 0 0 0-3.624 2.784l-.554 2.078a3.29 3.29 0 0 0 3.18 4.138c.52 0 .943.422.943.944v1.484a3.072 3.072 0 0 0 3.072 3.072h.424a1.04 1.04 0 0 0 1.03-.902l.188-1.404a3.238 3.238 0 0 1 1.714-2.444h1.572a1.75 1.75 0 0 0 1.75-1.75v-4a1.75 1.75 0 0 0-1.75-1.75h-.352a1.25 1.25 0 0 1-.934-.42l-.508-.571a3.75 3.75 0 0 0-2.803-1.259h-3.348Zm1.445 9.944a2.444 2.444 0 0 0-2.444-2.444 1.79 1.79 0 0 1-1.73-2.252l.555-2.078a2.25 2.25 0 0 1 2.174-1.67h3.348a2.25 2.25 0 0 1 1.681.755l.509.572c.05.057.103.111.157.163v5.422a4.738 4.738 0 0 0-2.523 3.584l-.134 1.004h-.02a1.572 1.572 0 0 1-1.573-1.572v-1.485Zm5.75-1.694h.75a.25.25 0 0 0 .25-.25v-4a.25.25 0 0 0-.25-.25h-.352a2.75 2.75 0 0 1-.398-.029v4.529Z" fill="#5C5F62"/></svg>
